src/images/pages/get-started/get-started-yin-yang.svg

<svg xmlns="http://www.w3.org/2000/svg" viewBox="0 0 156 156"><circle fill="#fff" cx="78" cy="78" r="77.689"/><path fill="#2A3052" d="M133.154 22.846c-14.732-14.733-34.318-22.846-55.154-22.846s-40.422 8.113-55.154 22.846c-14.733 14.73-22.846 34.318-22.846 55.154 0 20.834 8.113 40.422 22.846 55.154s34.318 22.846 55.154 22.846 40.422-8.113 55.154-22.846 22.846-34.32 22.846-55.154c0-20.836-8.113-40.424-22.846-55.154zm-55.168 8.633c4.283 0 7.756 3.471 7.756 7.752 0 4.283-3.473 7.754-7.756 7.754-4.281 0-7.752-3.471-7.752-7.754 0-4.282 3.471-7.752 7.752-7.752zm8.43 123.134c-2.775.299-5.584.455-8.416.455-20.586 0-39.939-8.016-54.496-22.572s-22.574-33.91-22.574-54.496 8.018-39.941 22.574-54.498c12.539-12.539 28.641-20.221 46.023-22.109-17.341 3.861-30.306 19.334-30.306 37.837 0 21.413 17.355 38.77 38.765 38.77h.004c21.41 0 38.766 17.355 38.766 38.768 0 18.515-12.983 33.996-30.34 37.845zm-8.43-45.599c-4.281 0-7.752 3.471-7.752 7.754 0 4.281 3.471 7.752 7.752 7.752 4.283 0 7.756-3.471 7.756-7.752 0-4.284-3.472-7.754-7.756-7.754z"/></svg>

<svg xmlns="http://www.w3.org/2000/svg" viewBox="0 0 156 156"><circle fill="#fff" cx="78" cy="78" r="77.689"/><path fill="#2A3052" d="M133.154 22.846C118.422 8.113 98.836 0 78 0S37.578 8.113 22.846 22.846C8.113 37.576 0 57.164 0 78c0 20.834 8.113 40.422 22.846 55.154S57.164 156 78 156s40.422-8.113 55.154-22.846S156 98.834 156 78c0-20.836-8.113-40.424-22.846-55.154zM77.986 31.48c4.283 0 7.756 3.47 7.756 7.75 0 4.284-3.473 7.755-7.756 7.755-4.28 0-7.752-3.47-7.752-7.754 0-4.28 3.47-7.75 7.752-7.75zm8.43 123.133c-2.775.3-5.584.455-8.416.455-20.586 0-39.94-8.016-54.496-22.572S.93 98.586.93 78s8.018-39.94 22.574-54.498c12.54-12.54 28.64-20.22 46.023-22.11C52.187 5.255 39.22 20.728 39.22 39.23 39.22 60.643 56.577 78 77.987 78h.004c21.41 0 38.766 17.355 38.766 38.768 0 18.515-12.983 33.996-30.34 37.845zm-8.43-45.6c-4.28 0-7.752 3.472-7.752 7.755 0 4.28 3.47 7.752 7.752 7.752 4.283 0 7.756-3.47 7.756-7.752 0-4.284-3.472-7.754-7.756-7.754z"/></svg>
